X:475
T:
R:vals
S:Upptecknad efter instrumentmakare Köhlers förespelning, Visby.
O:Gotland, Visby
M:3/4
L:1/8
K:D
a2 f2 d2|A3 Adf|agec A2|agec A2|a2 f2 d2|A3 Adf|agecAc|d4 z2::
K:G
d2 Bdgd|b2 g4|afdfaf|bgdBGB|d2 Bdgd|b2 g4|afdada|[Bg]6:|

